X:3060
T:John Brown's Spirit - descant to JB's Body
O:england
C:Laurie Griffiths
L:1/8
M:6/8
K:G
ggg g2g | g2f e2d | g2f g2a | b3-b3|
c'c'c' c'2c'| b2g g2g | b2b b2a| g3 g3 |
ggg g2g | g2f e2d | ^d3 f3 | b3 b2b |
c'3 c'3 | d'c'b agf | gfe dcB | ABc def ||


